images_sukapura_svg/cmd/32/accepttrackedchanges.svg

<svg viewBox="0 0 32 32" xmlns="http://www.w3.org/2000/svg" xmlns:xlink="http://www.w3.org/1999/xlink"><linearGradient id="a" gradientUnits="userSpaceOnUse" x1="20" x2="23" y1="9" y2="6"><stop offset="0" stop-color="#fff"/><stop offset=".77967989" stop-color="#f1f1f1"/><stop offset="1" stop-color="#d5d5d5"/></linearGradient><radialGradient id="b" cx="22" cy="9.076923" gradientTransform="matrix(1.3 .00000001 -.00000002 1.5 -6.6 -6.615385)" gradientUnits="userSpaceOnUse" r="10"><stop offset="0" stop-color="#d7d7d7"/><stop offset=".29999998" stop-color="#f7f7f7"/><stop offset="1" stop-color="#fff"/></radialGradient><linearGradient id="c" gradientUnits="userSpaceOnUse" x1="13" x2="13" y1="23" y2="5"><stop offset="0" stop-color="#f7f7f7"/><stop offset=".22222222" stop-color="#fff"/><stop offset=".83333331" stop-color="#fff"/><stop offset="1" stop-color="#f7f7f7"/></linearGradient><linearGradient id="d" gradientUnits="userSpaceOnUse" x1="19.5" x2="19.5" y1="21.500001" y2="14.5"><stop offset="0" stop-color="#cfcfcf"/><stop offset=".07142864" stop-color="#e7e7e7"/><stop offset=".07142864" stop-color="#fff"/><stop offset=".5" stop-color="#f3f3f3"/><stop offset=".93333334" stop-color="#f9f9f9"/><stop offset=".93333334" stop-color="#fcfcfc"/><stop offset="1" stop-color="#fff"/></linearGradient><linearGradient id="e" gradientUnits="userSpaceOnUse" x1="19.428571" x2="19.428571" y1="18.25" y2="21.285715"><stop offset="0" stop-color="#f8f8f8"/><stop offset="1" stop-color="#fff"/></linearGradient><path d="m6 3v26h20v-14.810547-4.189453l-7-7zm19.998047 23.066406.001953 2.933594h-.002z" fill="url(#b)"/><g fill="#98989d"><path d="m5.9980469 2c-.554 0-1 .446-1 1v26c0 .554.446 1 1 1h7.0019531.482422 8.605469 1.912109 1.998047c.554 0 .892483-.456533 1-1v-3h.001953v-13h-.001953v-4.6152344l-6.507813-6.3847656zm0 1h13.0000001v6c0 .6726441.491378 1 1 1h6v4.189453h.001953v11.810547h.064453l-.066406.066406v2.933594h-1.998047-.917969-9.353515-.728516-7.0019531z"/><rect height="1" ry=".5" width="5" x="8" y="10"/><rect height="1" ry=".5" width="9" x="8" y="14"/></g><g fill="#ff9f0a"><rect height="1" ry=".5" width="5" x="19" y="14"/><rect height="1" ry=".5" width="7" x="8" y="18"/><path d="m8.5 26c-.277 0-.5.207763-.5.464844v.07031c0 .257083.223.464846.5.464846h7c.277 0 .5-.207763.5-.464844v-.07031c0-.257083-.223-.464846-.5-.464846z"/></g><g fill="#98989d"><rect height="1" ry=".474576" width="4" x="8" y="22"/><path d="m14.474609 22c-.262915 0-.474609.211694-.474609.474609v.050782c0 .262915.211694.474609.474609.474609h2.296875l.953125-.953125c-.060895-.028313-.127406-.046875-.199218-.046875z"/><rect height="1" ry=".474576" width="4" x="17" y="18"/><rect height="1" ry=".5" width="2" x="15" y="10"/></g><path d="m20 9h6l-6-6z" fill="url(#a)" fill-rule="evenodd"/><g transform="matrix(1.33333 0 0 1.33333 -2.99992 -.99992)"><path d="m15.749979 12.749972h7.500019v10.500026h-7.500019z" fill="url(#c)"/><path d="m16 12c-.554 0-1 .446-1 1v10c0 .554.446 1 1 1h7c.554 0 1-.446 1-1v-10c0-.554-.446-1-1-1zm-.250021.749972h7.500019v10.500026h-7.500019z" fill="#848489"/><g stroke-width=".607143"><path d="m16.874982 13.499974h5.250013v9.000022h-5.250013z" fill="#626262"/><path d="m17.249983 14.249976h4.500011v7.500018h-4.500011z" fill="url(#d)"/><path d="m17.999992 14.999977h3l.000008 3.000023h-3z" fill="#dadada"/><path d="m18 18h3v3h-3z" fill="url(#e)"/></g></g></svg>

<?xml version="1.0" encoding="UTF-8" standalone="no"?>
<svg
   xmlns:dc="http://purl.org/dc/elements/1.1/"
   xmlns:cc="http://creativecommons.org/ns#"
   xmlns:rdf="http://www.w3.org/1999/02/22-rdf-syntax-ns#"
   xmlns:svg="http://www.w3.org/2000/svg"
   xmlns="http://www.w3.org/2000/svg"
   xmlns:sodipodi="http://sodipodi.sourceforge.net/DTD/sodipodi-0.dtd"
   xmlns:inkscape="http://www.inkscape.org/namespaces/inkscape"
   viewBox="0 0 32 32"
   version="1.1"
   id="svg36"
   sodipodi:docname="accepttrackedchanges.svg"
   inkscape:version="0.92.3 (unknown)"
   inkscape:export-filename="/home/rizmut/Dokumen/Rizmut/Github/libreoffice-style-sukapura/images_sukapura/cmd/32/accepttrackedchanges.png"
   inkscape:export-xdpi="96"
   inkscape:export-ydpi="96">
  <metadata
     id="metadata42">
    <rdf:RDF>
      <cc:Work
         rdf:about="">
        <dc:format>image/svg+xml</dc:format>
        <dc:type
           rdf:resource="http://purl.org/dc/dcmitype/StillImage" />
        <dc:title></dc:title>
      </cc:Work>
    </rdf:RDF>
  </metadata>
  <defs
     id="defs40">
    <linearGradient
       id="b"
       gradientUnits="userSpaceOnUse"
       x1="20"
       x2="23"
       y1="9"
       y2="6">
      <stop
         offset="0"
         stop-color="#fff"
         id="stop1004" />
      <stop
         offset=".77967989"
         stop-color="#f1f1f1"
         id="stop1006" />
      <stop
         offset="1"
         stop-color="#d5d5d5"
         id="stop1008" />
    </linearGradient>
    <radialGradient
       id="a"
       cx="22"
       cy="9.0769234"
       gradientTransform="matrix(1.3,1e-8,-2e-8,1.5,-6.6,-6.615385)"
       gradientUnits="userSpaceOnUse"
       r="10">
      <stop
         offset="0"
         stop-color="#d7d7d7"
         id="stop997" />
      <stop
         offset=".29999998"
         stop-color="#f7f7f7"
         id="stop999" />
      <stop
         offset="1"
         stop-color="#fff"
         id="stop1001" />
    </radialGradient>
    <linearGradient
       id="a-3"
       gradientUnits="userSpaceOnUse"
       x1="11"
       x2="11"
       y1="21"
       y2="3"
       gradientTransform="translate(2,2)">
      <stop
         offset="0"
         stop-color="#f7f7f7"
         id="stop2-6" />
      <stop
         offset=".22222222"
         stop-color="#fff"
         id="stop4-7" />
      <stop
         offset=".83333331"
         stop-color="#fff"
         id="stop6-5" />
      <stop
         offset="1"
         stop-color="#f7f7f7"
         id="stop8" />
    </linearGradient>
    <linearGradient
       id="b-3"
       gradientUnits="userSpaceOnUse"
       x1="12.117647"
       x2="12.117647"
       y1="17.352942"
       y2="5.8235288"
       gradientTransform="matrix(0.60714286,0,0,0.60714286,12.142857,10.964286)">
      <stop
         offset="0"
         stop-color="#cfcfcf"
         id="stop11-5" />
      <stop
         offset="0.07142864"
         stop-color="#e7e7e7"
         id="stop13-6" />
      <stop
         offset="0.07142864"
         stop-color="#fff"
         id="stop15" />
      <stop
         offset=".5"
         stop-color="#f3f3f3"
         id="stop17" />
      <stop
         offset="0.93333334"
         stop-color="#f9f9f9"
         id="stop19" />
      <stop
         offset="0.93333334"
         stop-color="#fcfcfc"
         id="stop21" />
      <stop
         offset="1"
         stop-color="#fff"
         id="stop23" />
    </linearGradient>
    <linearGradient
       id="c"
       gradientUnits="userSpaceOnUse"
       x1="12"
       x2="12"
       y1="12"
       y2="17"
       gradientTransform="matrix(0.60714286,0,0,0.60714286,12.142857,10.964286)">
      <stop
         offset="0"
         stop-color="#f8f8f8"
         id="stop26" />
      <stop
         offset="1"
         stop-color="#fff"
         id="stop28" />
    </linearGradient>
  </defs>
  <sodipodi:namedview
     pagecolor="#ffffff"
     bordercolor="#666666"
     borderopacity="1"
     objecttolerance="10"
     gridtolerance="10"
     guidetolerance="10"
     inkscape:pageopacity="0"
     inkscape:pageshadow="2"
     inkscape:window-width="1366"
     inkscape:window-height="699"
     id="namedview38"
     showgrid="true"
     inkscape:zoom="20.85965"
     inkscape:cx="10.695635"
     inkscape:cy="11.237225"
     inkscape:window-x="0"
     inkscape:window-y="0"
     inkscape:window-maximized="1"
     inkscape:current-layer="g24"
     inkscape:snap-global="true">
    <inkscape:grid
       type="xygrid"
       id="grid1653" />
  </sodipodi:namedview>
  <path
     style="fill:url(#a)"
     d="M 6,3 V 29 H 26 V 14.189453 10 L 19,3 Z M 25.998047,26.066406 26,29 h -0.002 z"
     id="path1011"
     inkscape:connector-curvature="0"
     sodipodi:nodetypes="ccccccccccc" />
  <path
     style="fill:#98989d;fill-opacity:1"
     d="M 5.9980469 2 C 5.4440469 2 4.9980469 2.446 4.9980469 3 L 4.9980469 29 C 4.9980469 29.554 5.4440469 30 5.9980469 30 L 13 30 L 13.482422 30 L 22.087891 30 L 24 30 L 25.998047 30 C 26.552047 30 26.89053 29.543467 26.998047 29 L 26.998047 26 L 27 26 L 27 13 L 26.998047 13 L 26.998047 8.3847656 L 20.490234 2 L 5.9980469 2 z M 5.9980469 3 L 18.998047 3 L 18.998047 9 C 18.998047 9.6726441 19.489425 10 19.998047 10 L 25.998047 10 L 25.998047 14.189453 C 25.998047 14.189453 26 14.189453 26 14.189453 L 26 26 L 26.064453 26 L 25.998047 26.066406 L 25.998047 29 L 24 29 L 23.082031 29 L 13.728516 29 L 13 29 L 5.9980469 29 L 5.9980469 3 z "
     id="path4" />
  <rect
     fill="#808080"
     height="1"
     ry=".5"
     width="5"
     x="8"
     y="10"
     id="rect14"
     style="fill:#98989d;fill-opacity:1" />
  <rect
     fill="#808080"
     height="1"
     ry=".5"
     width="9"
     x="8"
     y="14"
     id="rect16"
     style="fill:#98989d;fill-opacity:1" />
  <g
     id="g24"
     style="fill:#ff9f0a;fill-opacity:1"
     fill="#d65532">
    <rect
       height="1"
       ry=".5"
       width="5"
       x="19"
       y="14"
       id="rect18"
       style="fill:#ff9f0a;fill-opacity:1" />
    <rect
       height="1"
       ry=".5"
       width="7"
       x="8"
       y="18"
       id="rect20"
       style="fill:#ff9f0a;fill-opacity:1" />
    <path
       inkscape:connector-curvature="0"
       style="opacity:1;fill:#ff9f0a;fill-opacity:1;stroke:none;stroke-width:1;stroke-linecap:round;stroke-linejoin:round;stroke-miterlimit:4;stroke-dasharray:none;stroke-opacity:0"
       d="M 8.5,26 C 8.223,26 8,26.207763 8,26.464844 v 0.07031 C 8,26.792237 8.223,27 8.5,27 h 7 c 0.277,0 0.5,-0.207763 0.5,-0.464844 v -0.07031 C 16,26.207763 15.777,26 15.5,26 Z"
       id="rect893" />
  </g>
  <g
     fill="#808080"
     id="g34">
    <rect
       height="1"
       ry=".474576"
       width="4"
       x="8"
       y="22"
       id="rect26"
       style="fill:#98989d;fill-opacity:1" />
    <path
       style="fill:#98989d;fill-opacity:1"
       d="M 14.474609 22 C 14.211694 22 14 22.211694 14 22.474609 L 14 22.525391 C 14 22.788306 14.211694 23 14.474609 23 L 16.771484 23 L 17.724609 22.046875 C 17.663714 22.018562 17.597203 22 17.525391 22 L 14.474609 22 z "
       id="rect28" />
    <rect
       height="1"
       ry=".474576"
       width="4"
       x="17"
       y="18"
       id="rect30"
       style="fill:#98989d;fill-opacity:1" />
    <rect
       height="1"
       ry=".5"
       width="2"
       x="15"
       y="10"
       id="rect32"
       style="fill:#98989d;fill-opacity:1" />
  </g>
  <path
     inkscape:connector-curvature="0"
     style="fill:url(#b);fill-rule:evenodd"
     d="m 20,9 h 6 L 20,3 Z"
     id="path1015" />
  <g
     transform="matrix(1.33333,0,0,1.33333,-2.99992,-0.99992)"
     id="g895">
    <path
       id="path31"
       d="m 15.749979,12.749972 h 7.500019 v 10.500026 h -7.500019 z"
       style="fill:url(#a-3)"
       inkscape:connector-curvature="0"
       sodipodi:nodetypes="ccccc" />
    <path
       id="path33"
       d="m 16,12 c -0.554,0 -1,0.446 -1,1 v 10 c 0,0.554 0.446,1 1,1 h 7 c 0.554,0 1,-0.446 1,-1 V 13 c 0,-0.554 -0.446,-1 -1,-1 z m -0.250021,0.749972 h 7.500019 v 10.500026 h -7.500019 z"
       style="fill:#848489"
       inkscape:connector-curvature="0"
       sodipodi:nodetypes="sssssssssccccc" />
    <path
       id="path35"
       d="m 16.874982,13.499974 h 5.250013 v 9.000022 h -5.250013 z"
       style="fill:#626262;stroke-width:0.60714287"
       inkscape:connector-curvature="0"
       sodipodi:nodetypes="ccccc" />
    <path
       id="path37"
       d="m 17.249983,14.249976 h 4.500011 v 7.500018 h -4.500011 z"
       style="fill:url(#b-3);stroke-width:0.60714287"
       inkscape:connector-curvature="0"
       sodipodi:nodetypes="ccccc" />
    <path
       id="path39"
       d="m 17.999992,14.999977 h 3 L 21,18 h -3 z"
       style="fill:#dadada;stroke-width:0.60714287"
       inkscape:connector-curvature="0"
       sodipodi:nodetypes="ccccc" />
    <path
       id="path41"
       d="m 18,18 h 3 v 3 h -3 z"
       style="fill:url(#c);stroke-width:0.60714287"
       inkscape:connector-curvature="0"
       sodipodi:nodetypes="ccccc" />
  </g>
</svg>
